X:200
T: Das Traenenkrueglein
N: Q0122
O: Mitteleuropa, Deutschland (Text: Pommern)
N: Tonangabe des Chorals "Ich weiss mir ein Ewigess Himmelreich" fuer
N: diese Ballade. Taktart in 3/4 eingeteilt, gemaess der Vorgabe (3er).
N: Letzten Notenwert rhythmisch korrigiert.
R: Ballade, Tod, Trauer, Geist; geistlich; Zeitungs - Lied
M: 3/4
L: 1/8
K: G
G2 | G4A2 | B4c2 | d4d2 | B4
d2 | d4B2 | c4B2 | A6 | G4
d2 | A4dc | B4A2 | G4F2 | E4
D2 | G4Bc | d3cB2 | A6 | G4

@@@ Tune index: 1493
